src/images/hackathon/bootcamp.svg

<svg fill="none" height="24" viewBox="0 0 24 24" width="24" xmlns="http://www.w3.org/2000/svg"><g fill="#545454"><path d="m11.9997 22.4966c-2.42237-.0015-4.76975-.8402-6.64452-2.3742-1.87476-1.534-3.16164-3.6689-3.64262-6.043-.48099-2.3741-.12652-4.84153 1.00337-6.98423 1.12989-2.14271 2.96572-3.82897 5.1965-4.77313 2.56337-1.07062 5.44657-1.08204 8.01837-.03175s4.6227 3.07673 5.7039 5.63573c1.0811 2.55898 1.1043 5.44208.0646 8.01818-1.0398 2.5761-3.0578 4.6353-5.6123 5.7269-1.293.5474-2.6832.8281-4.0873.8255zm0-19.50003c-4.96266 0-9.00001 4.03735-9.00001 9.00003 0 4.9626 4.03735 9 9.00001 9 4.9626 0 9-4.0374 9-9 0-4.96268-4.0374-9.00003-9-9.00003z"/><path d="m12 16.7729c-.2008.0001-.3998-.0387-.5859-.1142-.0488-.0199-.0947-.0463-.1364-.0785l-.6291-.4849c-.0284-.006-.0573-.0091-.0863-.0091h-3.74527c-.77344 0-1.40297-.5625-1.40297-1.2525v-6.3605c0-.6907.6293-1.2525 1.40297-1.2525h3.46877c.1554 0 .3044.06174.4143.17162.1099.10989.1716.25892.1716.41432s-.0617.30444-.1716.41432c-.1099.10989-.2589.17162-.4143.17162h-3.46877c-.13195 0-.21422.05929-.23109.08789v6.34593c.01687.0286.09914.0879.23109.0879h3.74457c.2009 0 .3998.0387.586.1139.0487.0199.0946.0462.1364.0783l.6288.4849c.057.0122.116.0122.173 0l.6288-.4849c.0418-.0321.0876-.0584.1364-.0783.1862-.0752.3851-.1139.586-.1139h3.746c.1319 0 .2142-.0593.2311-.0879v-6.34593c-.0169-.0286-.0992-.08789-.2311-.08789h-4.366c-.1319 0-.2142.05929-.2311.08789v4.92183c0 .1554-.0617.3045-.1716.4144-.1099.1098-.2589.1716-.4143.1716s-.3044-.0618-.4143-.1716c-.1099-.1099-.1716-.259-.1716-.4144v-4.9291c0-.6907.6293-1.2525 1.4029-1.2525h4.366c.7734 0 1.4029.5625 1.4029 1.2525v6.3605c0 .6907-.6293 1.2525-1.4029 1.2525h-3.7446c-.029 0-.0579.0031-.0863.0091l-.6291.4849c-.0417.0322-.0876.0586-.1364.0785-.1863.0756-.3855.1144-.5866.1142z"/><path d="m7.80469 9.91943h2.10937c.39064 0 .58594.19527.58594.58597 0 .3906-.1953.5859-.58594.5859h-2.10937c-.39063 0-.58594-.1953-.58594-.5859 0-.3907.19531-.58597.58594-.58597z"/><path d="m7.80469 12.0054h2.10937c.39064 0 .58594.1953.58594.5859s-.1953.5859-.58594.5859h-2.10937c-.39063 0-.58594-.1953-.58594-.5859s.19531-.5859.58594-.5859z"/></g></svg>

<svg width="24" height="24" viewBox="0 0 24 24" fill="none" xmlns="http://www.w3.org/2000/svg">
<path d="M11.9997 22.4966C9.57733 22.4951 7.22995 21.6564 5.35518 20.1224C3.48042 18.5884 2.19354 16.4535 1.71256 14.0794C1.23157 11.7053 1.58604 9.23787 2.71593 7.09517C3.84582 4.95246 5.68165 3.2662 7.91243 2.32204C10.4758 1.25142 13.359 1.24 15.9308 2.29029C18.5026 3.34058 20.5535 5.36702 21.6347 7.92602C22.7158 10.485 22.739 13.3681 21.6993 15.9442C20.6595 18.5203 18.6415 20.5795 16.087 21.6711C14.794 22.2185 13.4038 22.4992 11.9997 22.4966ZM11.9997 2.99657C7.03704 2.99657 2.99969 7.03392 2.99969 11.9966C2.99969 16.9592 7.03704 20.9966 11.9997 20.9966C16.9623 20.9966 20.9997 16.9592 20.9997 11.9966C20.9997 7.03392 16.9623 2.99657 11.9997 2.99657Z" fill="#545454"/>
<path d="M12 16.7729C11.7992 16.773 11.6002 16.7342 11.4141 16.6587C11.3653 16.6388 11.3194 16.6124 11.2777 16.5802L10.6486 16.0953C10.6202 16.0893 10.5913 16.0862 10.5623 16.0862H6.81703C6.04359 16.0862 5.41406 15.5237 5.41406 14.8337V8.4732C5.41406 7.7825 6.04336 7.2207 6.81703 7.2207H10.2858C10.4412 7.2207 10.5902 7.28244 10.7001 7.39232C10.81 7.50221 10.8717 7.65124 10.8717 7.80664C10.8717 7.96204 10.81 8.11108 10.7001 8.22096C10.5902 8.33085 10.4412 8.39258 10.2858 8.39258H6.81703C6.68508 8.39258 6.60281 8.45187 6.58594 8.48047V14.8264C6.60281 14.855 6.68508 14.9143 6.81703 14.9143H10.5616C10.7625 14.9143 10.9614 14.953 11.1476 15.0282C11.1963 15.0481 11.2422 15.0744 11.284 15.1065L11.9128 15.5914C11.9698 15.6036 12.0288 15.6036 12.0858 15.5914L12.7146 15.1065C12.7564 15.0744 12.8022 15.0481 12.851 15.0282C13.0372 14.953 13.2361 14.9143 13.437 14.9143H17.183C17.3149 14.9143 17.3972 14.855 17.4141 14.8264V8.48047C17.3972 8.45187 17.3149 8.39258 17.183 8.39258H12.817C12.6851 8.39258 12.6028 8.45187 12.5859 8.48047V13.4023C12.5859 13.5577 12.5242 13.7068 12.4143 13.8167C12.3044 13.9265 12.1554 13.9883 12 13.9883C11.8446 13.9883 11.6956 13.9265 11.5857 13.8167C11.4758 13.7068 11.4141 13.5577 11.4141 13.4023V8.4732C11.4141 7.7825 12.0434 7.2207 12.817 7.2207H17.183C17.9564 7.2207 18.5859 7.7832 18.5859 8.4732V14.8337C18.5859 15.5244 17.9566 16.0862 17.183 16.0862H13.4384C13.4094 16.0862 13.3805 16.0893 13.3521 16.0953L12.723 16.5802C12.6813 16.6124 12.6354 16.6388 12.5866 16.6587C12.4003 16.7343 12.2011 16.7731 12 16.7729Z" fill="#545454"/>
<path d="M7.80469 9.91943H9.91406C10.3047 9.91943 10.5 10.1147 10.5 10.5054C10.5 10.896 10.3047 11.0913 9.91406 11.0913H7.80469C7.41406 11.0913 7.21875 10.896 7.21875 10.5054C7.21875 10.1147 7.41406 9.91943 7.80469 9.91943Z" fill="#545454"/>
<path d="M7.80469 12.0054H9.91406C10.3047 12.0054 10.5 12.2007 10.5 12.5913C10.5 12.9819 10.3047 13.1772 9.91406 13.1772H7.80469C7.41406 13.1772 7.21875 12.9819 7.21875 12.5913C7.21875 12.2007 7.41406 12.0054 7.80469 12.0054Z" fill="#545454"/>
</svg>
